;FLAVOR:Marlin
;TIME:3206
;Filament used: 1.69848m
;Layer height: 0.2
;MINX:79.009
;MINY:59.017
;MINZ:0.2
;MAXX:160.698
;MAXY:115.983
;MAXZ:18
;Generated with Cura_SteamEngine 5.4.0
M140 S50
M105
M190 S50
M104 S200
M105
M109 S200
M82 ;absolute extrusion mode
; Ender 3 Custom Start G-code
G92 E0 ; Reset Extruder
G28 ; Home all axes
G1 Z2.0 F3000 ; Move Z Axis up little to prevent scratching of Heat Bed
G1 X0.1 Y20 Z0.3 F5000.0 ; Move to start position
G1 X0.1 Y200.0 Z0.3 F1500.0 E15 ; Draw the first line
G1 X0.4 Y200.0 Z0.3 F5000.0 ; Move to side a little
G1 X0.4 Y20 Z0.3 F1500.0 E30 ; Draw the second line
G92 E0 ; Reset Extruder
G1 Z2.0 F3000 ; Move Z Axis up little to prevent scratching of Heat Bed
G1 X5 Y20 Z0.3 F5000.0 ; Move over to prevent blob squish
G92 E0
G92 E0
G1 F2700 E-5
;LAYER_COUNT:90
;LAYER:0
M107
G0 F6000 X85.454 Y69.463 Z0.2
;TYPE:SKIRT
G1 F2700 E0
G1 F1200 X86.301 Y68.484 E0.04306
G1 X86.837 Y67.891 E0.06964
G1 X87.456 Y67.261 E0.09902
G1 X88.449 Y66.332 E0.14425
G1 X88.941 Y65.889 E0.16627
G1 X89.374 Y65.521 E0.18517
G1 X89.878 Y65.123 E0.20653
G1 X90.726 Y64.486 E0.2418
G1 X91.311 Y64.062 E0.26583
G1 X91.976 Y63.618 E0.29243
G1 X93.15 Y62.901 E0.33818
G1 X93.778 Y62.538 E0.36231
G1 X94.527 Y62.14 E0.39052
G1 X95.503 Y61.674 E0.42649
G1 X96.404 Y61.265 E0.4594
G1 X96.946 Y61.038 E0.47894
G1 X97.638 Y60.779 E0.50352
G1 X99.055 Y60.296 E0.55331
G1 X99.866 Y60.055 E0.58145
G1 X100.676 Y59.851 E0.60923
G1 X101.924 Y59.567 E0.6518
G1 X102.586 Y59.44 E0.67422
G1 X103.202 Y59.343 E0.69496
G1 X104.007 Y59.238 E0.72196
G1 X104.93 Y59.131 E0.75287
G1 X105.77 Y59.068 E0.78089
G1 X106.874 Y59.03 E0.81763
G1 X107.837 Y59.017 E0.84966
G1 X108.441 Y59.028 E0.86975
G1 X109.029 Y59.058 E0.88933
G1 X110.757 Y59.201 E0.947
G1 X111.372 Y59.276 E0.96761
G1 X111.957 Y59.368 E0.98731
G1 X112.946 Y59.547 E1.02074
G1 X114.326 Y59.818 E1.06751
G1 X116.819 Y60.273 E1.1518
G1 X119.332 Y60.657 E1.23635
G1 X121.822 Y60.967 E1.31981
G1 X124.337 Y61.207 E1.40384
G1 X126.832 Y61.374 E1.48701
G1 X129.376 Y61.473 E1.57169
G1 X131.595 Y61.5 E1.6455
G1 X145.951 Y61.501 E2.12298
G1 X146.668 Y61.512 E2.14683
G1 X147.656 Y61.572 E2.17975
G1 X148.62 Y61.718 E2.21218
G1 X149.567 Y61.949 E2.2446
G1 X150.423 Y62.237 E2.27464
G1 X151.379 Y62.656 E2.30935
G1 X152.232 Y63.127 E2.34176
G1 X153.039 Y63.672 E2.37415
G1 X153.796 Y64.286 E2.40657
G1 X154.494 Y64.964 E2.43893
G1 X155.13 Y65.701 E2.47131
G1 X155.699 Y66.491 E2.50369
G1 X156.162 Y67.267 E2.53375
G1 X156.614 Y68.208 E2.56847
G1 X156.955 Y69.12 E2.60085
G1 X157.212 Y70.047 E2.63285
G1 X157.331 Y70.638 E2.6529
G1 X157.461 Y71.389 E2.67825
G1 X157.66 Y72.645 E2.72055
G1 X158.122 Y75.108 E2.8039
G1 X158.666 Y77.617 E2.88928
G1 X159.251 Y79.99 E2.97057
G1 X160.213 Y83.415 E3.0889
G1 X160.354 Y83.957 E3.10752
G1 X160.538 Y84.841 E3.13756
G1 X160.659 Y85.866 E3.17188
G1 X160.685 Y86.471 E3.19203
G1 X160.698 Y87.646 E3.23111
G1 X160.685 Y88.403 E3.25629
G1 X160.598 Y89.6 E3.29621
G1 X160.556 Y89.913 E3.30671
G1 X160.388 Y90.861 E3.33873
G1 X160.235 Y91.463 E3.35939
G1 X159.742 Y93.166 E3.41836
G1 X159.083 Y95.629 E3.50316
G1 X158.508 Y98.053 E3.58602
G1 X157.989 Y100.546 E3.67072
G1 X157.432 Y103.726 E3.77809
G1 X157.351 Y104.234 E3.7952
G1 X157.154 Y105.188 E3.8276
G1 X156.875 Y106.12 E3.85996
G1 X156.527 Y106.993 E3.89122
G1 X156.072 Y107.893 E3.92476
G1 X155.557 Y108.721 E3.95719
G1 X154.993 Y109.47 E3.98838
G1 X154.318 Y110.22 E4.02194
G1 X153.657 Y110.836 E4.05199
G1 X152.833 Y111.478 E4.08673
G1 X152.013 Y112.004 E4.11913
G1 X151.149 Y112.455 E4.15155
G1 X150.25 Y112.827 E4.18391
G1 X149.321 Y113.12 E4.21631
G1 X148.37 Y113.329 E4.24869
G1 X147.475 Y113.447 E4.27872
G1 X146.795 Y113.487 E4.30138
G1 X146.188 Y113.5 E4.32157
G1 X131.64 Y113.5 E4.80544
G1 X129.056 Y113.537 E4.89139
G1 X126.488 Y113.646 E4.97688
G1 X124.014 Y113.821 E5.05937
G1 X121.542 Y114.066 E5.14199
G1 X118.979 Y114.394 E5.22793
G1 X116.573 Y114.772 E5.30894
G1 X114.428 Y115.184 E5.38159
G1 X114.116 Y115.23 E5.39208
G1 X112.467 Y115.54 E5.44788
G1 X111.53 Y115.698 E5.47949
G1 X110.947 Y115.779 E5.49906
G1 X110.338 Y115.841 E5.51942
G1 X109.363 Y115.916 E5.55195
G1 X108.598 Y115.964 E5.57744
G1 X107.768 Y115.983 E5.60506
G1 X106.477 Y115.96 E5.648
G1 X105.666 Y115.927 E5.675
G1 X104.812 Y115.857 E5.7035
G1 X103.691 Y115.721 E5.74106
G1 X102.777 Y115.591 E5.77176
G1 X102.183 Y115.488 E5.79181
G1 X101.595 Y115.365 E5.81179
G1 X100.799 Y115.178 E5.83899
G1 X99.904 Y114.953 E5.86968
G1 X99.363 Y114.801 E5.88837
G1 X98.76 Y114.61 E5.90941
G1 X97.927 Y114.322 E5.93873
G1 X97.121 Y114.028 E5.96726
G1 X96.574 Y113.811 E5.98683
G1 X95.963 Y113.54 E6.00906
G1 X94.528 Y112.858 E6.06191
G1 X93.805 Y112.48 E6.08904
G1 X93.16 Y112.104 E6.11388
G1 X91.982 Y111.385 E6.15978
G1 X91.229 Y110.879 E6.18995
G1 X90.362 Y110.242 E6.22574
G1 X89.543 Y109.612 E6.2601
G1 X89.012 Y109.173 E6.28302
G1 X88.471 Y108.691 E6.30712
G1 X87.457 Y107.739 E6.35338
G1 X86.968 Y107.25 E6.37638
G1 X86.559 Y106.807 E6.39643
G1 X85.913 Y106.074 E6.42893
G1 X85.39 Y105.459 E6.45578
G1 X85.034 Y105.019 E6.4746
G1 X84.645 Y104.495 E6.49631
G1 X83.722 Y103.181 E6.54972
G1 X83.209 Y102.376 E6.58147
G1 X82.528 Y101.191 E6.62693
G1 X82.188 Y100.569 E6.6505
G1 X81.812 Y99.805 E6.67882
G1 X81.266 Y98.58 E6.72343
G1 X80.984 Y97.909 E6.74764
G1 X80.686 Y97.109 E6.77603
G1 X80.274 Y95.852 E6.82003
G1 X80.051 Y95.114 E6.84567
G1 X79.838 Y94.294 E6.87385
G1 X79.61 Y93.245 E6.90956
G1 X79.418 Y92.281 E6.94225
G1 X79.318 Y91.673 E6.96274
G1 X79.235 Y91.005 E6.98513
G1 X79.083 Y89.449 E7.03713
G1 X79.044 Y88.908 E7.05517
G1 X79.017 Y88.167 E7.07983
G1 X79.009 Y87.465 E7.10318
G1 X79.014 Y86.978 E7.11938
G1 X79.043 Y86.162 E7.14654
G1 X79.085 Y85.518 E7.168
G1 X79.185 Y84.474 E7.20289
G1 X79.3 Y83.476 E7.2363
G1 X79.433 Y82.642 E7.26439
G1 X79.687 Y81.384 E7.30707
G1 X79.86 Y80.609 E7.33349
G1 X80.08 Y79.786 E7.36182
G1 X80.47 Y78.537 E7.40534
G1 X80.718 Y77.798 E7.43127
G1 X81.013 Y77.024 E7.45882
G1 X81.557 Y75.753 E7.5048
G1 X81.864 Y75.082 E7.52934
G1 X82.236 Y74.344 E7.55683
G1 X82.892 Y73.165 E7.6017
G1 X83.285 Y72.498 E7.62745
G1 X83.726 Y71.812 E7.65458
G1 X84.477 Y70.739 E7.69814
G1 X84.928 Y70.124 E7.7235
G1 X85.454 Y69.463 E7.7516
G0 F6000 X85.756 Y69.725
G1 F1200 X86.598 Y68.752 E7.7944
G1 X87.122 Y68.171 E7.82042
G1 X87.729 Y67.553 E7.84923
G1 X88.717 Y66.629 E7.89422
G1 X89.2 Y66.194 E7.91584
G1 X89.622 Y65.835 E7.93427
G1 X90.118 Y65.443 E7.9553
G1 X90.961 Y64.81 E7.99036
G1 X91.533 Y64.395 E8.01387
G1 X92.198 Y63.951 E8.04046
G1 X93.351 Y63.247 E8.08539
G1 X93.965 Y62.891 E8.109
G1 X94.7 Y62.501 E8.13667
G1 X95.668 Y62.038 E8.17236
G1 X96.558 Y61.634 E8.20487
G1 X97.086 Y61.413 E8.22391
G1 X97.767 Y61.158 E8.24809
G1 X99.184 Y60.675 E8.29789
G1 X99.964 Y60.443 E8.32495
G1 X100.765 Y60.241 E8.35243
G1 X102 Y59.96 E8.39455
G1 X102.648 Y59.835 E8.4165
G1 X103.254 Y59.74 E8.43691
G1 X104.053 Y59.635 E8.46371
G1 X104.96 Y59.53 E8.49408
G1 X105.784 Y59.468 E8.52156
G1 X106.879 Y59.43 E8.558
G1 X107.83 Y59.417 E8.58964
G1 X108.42 Y59.427 E8.60926
G1 X108.998 Y59.457 E8.62851
G1 X110.03 Y59.536 E8.66294
G1 X110.709 Y59.598 E8.68562
G1 X111.31 Y59.671 E8.70575
G1 X111.886 Y59.762 E8.72515
G1 X112.869 Y59.94 E8.75837
G1 X114.254 Y60.212 E8.80532
G1 X116.747 Y60.666 E8.8896
G1 X119.283 Y61.054 E8.97493
G1 X121.773 Y61.364 E9.05839
G1 X124.308 Y61.606 E9.14308
G1 X126.816 Y61.774 E9.22669
G1 X129.36 Y61.873 E9.31137
G1 X131.59 Y61.9 E9.38554
G1 X145.945 Y61.901 E9.86299
G1 X146.644 Y61.911 E9.88624
G1 X147.597 Y61.968 E9.91799
G1 X148.526 Y62.107 E9.94924
G1 X149.439 Y62.328 E9.98048
G1 X150.295 Y62.616 E10.01052
G1 X151.186 Y63.006 E10.04287
G1 X152.009 Y63.459 E10.07411
G1 X152.788 Y63.983 E10.10534
G1 X153.518 Y64.573 E10.13656
G1 X154.192 Y65.226 E10.16777
G1 X154.806 Y65.935 E10.19897
G1 X155.355 Y66.696 E10.23018
G1 X155.818 Y67.472 E10.26023
G1 X156.24 Y68.349 E10.2926
G1 X156.57 Y69.227 E10.3238
G1 X156.82 Y70.126 E10.35483
G1 X156.937 Y70.706 E10.37451
G1 X157.066 Y71.452 E10.39969
G1 X157.267 Y72.719 E10.44236
G1 X157.731 Y75.193 E10.52608
G1 X158.275 Y77.702 E10.61147
G1 X158.866 Y80.098 E10.69355
G1 X159.826 Y83.516 E10.81163
G1 X159.962 Y84.039 E10.82961
G1 X160.146 Y84.923 E10.85964
G1 X160.259 Y85.884 E10.89182
G1 X160.285 Y86.475 E10.9115
G1 X160.298 Y87.639 E10.95021
G1 X160.286 Y88.374 E10.97466
G1 X160.201 Y89.548 E11.01381
G1 X160.162 Y89.844 E11.02374
G1 X160 Y90.763 E11.05478
G1 X159.851 Y91.352 E11.07499
G1 X159.358 Y93.055 E11.13396
G1 X158.697 Y95.526 E11.21903
G1 X158.116 Y97.971 E11.30262
G1 X157.597 Y100.464 E11.38731
G1 X157.038 Y103.657 E11.49513
G1 X156.959 Y104.154 E11.51187
G1 X156.771 Y105.074 E11.5431
G1 X156.503 Y105.972 E11.57427
G1 X156.155 Y106.845 E11.60552
G1 X155.732 Y107.682 E11.63672
G1 X155.237 Y108.48 E11.66795
G1 X154.673 Y109.229 E11.69913
G1 X154.045 Y109.927 E11.73036
G1 X153.384 Y110.543 E11.76041
G1 X152.616 Y111.142 E11.79281
G1 X151.827 Y111.65 E11.82402
G1 X150.996 Y112.086 E11.85523
G1 X150.129 Y112.446 E11.88646
G1 X149.235 Y112.729 E11.91765
G1 X148.318 Y112.932 E11.94888
G1 X147.423 Y113.05 E11.97891
G1 X146.786 Y113.087 E12.00013
G1 X146.179 Y113.1 E12.02032
G1 X131.634 Y113.1 E12.50409
G1 X129.039 Y113.137 E12.59041
G1 X126.471 Y113.246 E12.6759
G1 X123.983 Y113.422 E12.75886
G1 X121.491 Y113.669 E12.84215
G1 X118.928 Y113.997 E12.92809
G1 X116.497 Y114.379 E13.00994
G1 X114.37 Y114.788 E13.08198
G1 X114.058 Y114.834 E13.09247
G1 X112.4 Y115.146 E13.14858
G1 X111.475 Y115.302 E13.17978
G1 X110.906 Y115.381 E13.19889
G1 X110.307 Y115.442 E13.21891
G1 X109.338 Y115.517 E13.25124
G1 X108.589 Y115.564 E13.2762
G1 X107.775 Y115.583 E13.30328
G1 X106.493 Y115.56 E13.34593
G1 X105.698 Y115.528 E13.37239
G1 X104.86 Y115.46 E13.40035
G1 X103.747 Y115.325 E13.43764
G1 X102.846 Y115.197 E13.46791
G1 X102.265 Y115.096 E13.48753
G1 X101.677 Y114.973 E13.50751
G1 X100.896 Y114.79 E13.53419
G1 X100.012 Y114.568 E13.5645
G1 X99.484 Y114.42 E13.58274
G1 X98.891 Y114.232 E13.60343
G1 X98.064 Y113.946 E13.63253
G1 X97.268 Y113.656 E13.66071
G1 X96.736 Y113.445 E13.67975
G1 X96.135 Y113.179 E13.70161
G1 X94.713 Y112.504 E13.75396
G1 X94.006 Y112.134 E13.7805
G1 X93.368 Y111.763 E13.80505
G1 X92.205 Y111.053 E13.85037
G1 X91.466 Y110.557 E13.87997
G1 X90.606 Y109.925 E13.91547
G1 X89.797 Y109.303 E13.94941
G1 X89.278 Y108.875 E13.97178
G1 X88.745 Y108.399 E13.99555
G1 X87.731 Y107.447 E14.04181
G1 X87.262 Y106.978 E14.06387
G1 X86.859 Y106.542 E14.08362
G1 X86.218 Y105.815 E14.11586
G1 X85.701 Y105.208 E14.14237
G1 X85.355 Y104.78 E14.16068
G1 X84.972 Y104.265 E14.18203
G1 X84.059 Y102.966 E14.23484
G1 X83.556 Y102.177 E14.26596
G1 X82.879 Y100.999 E14.31115
G1 X82.547 Y100.392 E14.33416
G1 X82.177 Y99.642 E14.36197
G1 X81.635 Y98.425 E14.40628
G1 X81.359 Y97.769 E14.42996
G1 X81.066 Y96.985 E14.45779
G1 X80.657 Y95.736 E14.50151
G1 X80.438 Y95.013 E14.52663
G1 X80.229 Y94.209 E14.55426
G1 X80.002 Y93.167 E14.58973
G1 X79.813 Y92.216 E14.62198
G1 X79.715 Y91.624 E14.64194
G1 X79.633 Y90.966 E14.66399
G1 X79.482 Y89.42 E14.71566
G1 X79.444 Y88.893 E14.73323
G1 X79.417 Y88.162 E14.75756
G1 X79.409 Y87.469 E14.78061
G1 X79.414 Y86.992 E14.79648
G1 X79.442 Y86.188 E14.82323
G1 X79.483 Y85.556 E14.8443
G1 X79.582 Y84.52 E14.87891
G1 X79.695 Y83.539 E14.91176
G1 X79.825 Y82.721 E14.93931
G1 X80.077 Y81.471 E14.98172
G1 X80.247 Y80.712 E15.00759
G1 X80.462 Y79.905 E15.03536
G1 X80.849 Y78.664 E15.0786
G1 X81.092 Y77.94 E15.104
G1 X81.381 Y77.181 E15.13101
G1 X81.921 Y75.919 E15.17667
G1 X82.221 Y75.262 E15.20069
G1 X82.586 Y74.538 E15.22766
G1 X83.237 Y73.368 E15.27219
G1 X83.622 Y72.714 E15.29743
G1 X84.054 Y72.041 E15.32403
G1 X84.8 Y70.975 E15.36731
G1 X85.241 Y70.373 E15.39213
G1 X85.756 Y69.725 E15.41966
G0 F6000 X86.059 Y69.987
G1 F1200 X86.895 Y69.02 E15.46217
G1 X87.408 Y68.451 E15.48765
G1 X88.002 Y67.845 E15.51588
G1 X88.984 Y66.926 E15.56061
G1 X89.459 Y66.499 E15.58185
G1 X89.87 Y66.149 E15.59981
G1 X90.358 Y65.763 E15.6205
G1 X91.196 Y65.134 E15.65535
G1 X91.755 Y64.728 E15.67833
G1 X92.42 Y64.284 E15.70493
G1 X93.552 Y63.593 E15.74904
G1 X94.152 Y63.244 E15.77212
G1 X94.873 Y62.862 E15.79926
G1 X95.833 Y62.402 E15.83467
G1 X96.712 Y62.003 E15.86678
G1 X97.226 Y61.788 E15.88531
G1 X97.896 Y61.537 E15.9091
G1 X99.313 Y61.054 E15.9589
G1 X100.062 Y60.831 E15.98489
G1 X100.854 Y60.631 E16.01206
G1 X102.076 Y60.353 E16.05374
G1 X102.71 Y60.23 E16.07522
G1 X103.307 Y60.137 E16.09532
G1 X104.099 Y60.032 E16.12189
G1 X104.99 Y59.929 E16.15172
G1 X105.798 Y59.868 E16.17867
G1 X106.885 Y59.83 E16.21485
G1 X107.824 Y59.817 E16.24608
G1 X108.399 Y59.826 E16.26521
G1 X108.968 Y59.856 E16.28416
G1 X109.994 Y59.934 E16.31838
G1 X110.661 Y59.995 E16.34066
G1 X111.247 Y60.066 E16.36029
G1 X111.815 Y60.156 E16.37942
G1 X112.792 Y60.333 E16.41244
G1 X114.177 Y60.605 E16.45939
G1 X116.676 Y61.059 E16.54387
G1 X119.234 Y61.451 E16.62994
G1 X121.724 Y61.761 E16.7134
G1 X124.279 Y62.005 E16.79876
G1 X126.8 Y62.174 E16.8828
G1 X129.344 Y62.273 E16.96748
G1 X131.585 Y62.3 E17.04202
G1 X145.939 Y62.301 E17.51944
G1 X146.638 Y62.311 E17.54269
G1 X147.539 Y62.364 E17.57271
G1 X148.433 Y62.496 E17.60276
G1 X149.311 Y62.707 E17.6328
G1 X150.167 Y62.995 E17.66284
G1 X150.994 Y63.357 E17.69286
G1 X151.786 Y63.791 E17.7229
G1 X152.537 Y64.294 E17.75296
G1 X153.24 Y64.861 E17.783
G1 X153.89 Y65.488 E17.81304
G1 X154.482 Y66.17 E17.84308
G1 X155.011 Y66.901 E17.87309
G1 X155.474 Y67.677 E17.90314
G1 X155.866 Y68.49 E17.93316
G1 X156.185 Y69.335 E17.9632
G1 X156.428 Y70.205 E17.99325
G1 X156.543 Y70.774 E18.01256
G1 X156.671 Y71.515 E18.03757
G1 X156.874 Y72.793 E18.08061
G1 X157.34 Y75.278 E18.1647
G1 X157.884 Y77.787 E18.25009
G1 X158.481 Y80.206 E18.33296
G1 X159.439 Y83.617 E18.4508
G1 X159.57 Y84.121 E18.46812
G1 X159.754 Y85.005 E18.49815
G1 X159.859 Y85.902 E18.52819
G1 X159.885 Y86.48 E18.54743
G1 X159.898 Y87.633 E18.58578
G1 X159.887 Y88.345 E18.60947
G1 X159.804 Y89.497 E18.64788
G1 X159.768 Y89.775 E18.6572
G1 X159.612 Y90.665 E18.68726
G1 X159.467 Y91.241 E18.70701
G1 X158.974 Y92.944 E18.76598
G1 X158.308 Y95.433 E18.85168
G1 X157.724 Y97.889 E18.93564
G1 X157.205 Y100.382 E19.02034
G1 X156.644 Y103.588 E19.12859
G1 X156.567 Y104.075 E19.14499
G1 X156.388 Y104.96 E19.17502
G1 X156.131 Y105.825 E19.20503
G1 X155.798 Y106.665 E19.23509
G1 X155.392 Y107.472 E19.26513
G1 X154.917 Y108.24 E19.29517
G1 X154.375 Y108.962 E19.32519
G1 X153.772 Y109.634 E19.35522
G1 X153.111 Y110.25 E19.38528
G1 X152.399 Y110.806 E19.41532
G1 X151.641 Y111.296 E19.44534
G1 X150.842 Y111.717 E19.47538
G1 X150.008 Y112.065 E19.50544
G1 X149.148 Y112.339 E19.53546
G1 X148.266 Y112.535 E19.56551
G1 X147.371 Y112.653 E19.59553
G1 X146.777 Y112.687 E19.61532
G1 X146.17 Y112.7 E19.63552
G1 X131.628 Y112.7 E20.11919
G1 X129.022 Y112.737 E20.20587
G1 X126.454 Y112.846 E20.29136
G1 X123.952 Y113.023 E20.37478
G1 X121.44 Y113.272 E20.45874
G1 X118.877 Y113.6 E20.54468
G1 X116.421 Y113.986 E20.62737
G1 X114.312 Y114.392 E20.69881
G1 X114 Y114.438 E20.7093
G1 X112.334 Y114.752 E20.76568
G1 X111.42 Y114.906 E20.79651
G1 X110.865 Y114.983 E20.81515
G1 X110.276 Y115.043 E20.83484
G1 X109.313 Y115.118 E20.86697
G1 X108.579 Y115.164 E20.89143
G1 X107.782 Y115.183 E20.91794
G1 X106.509 Y115.16 E20.96029
G1 X105.73 Y115.129 E20.98622
G1 X104.908 Y115.063 E21.01365
G1 X103.803 Y114.929 E21.05067
G1 X102.914 Y114.803 E21.08053
G1 X102.347 Y114.705 E21.09967
G1 X101.768 Y114.583 E21.11935
G1 X100.993 Y114.402 E21.14582
G1 X100.12 Y114.183 E21.17576
G1 X99.605 Y114.039 E21.19354
G1 X99.022 Y113.854 E21.21389
G1 X98.201 Y113.57 E21.24278
G1 X97.415 Y113.284 E21.2706
G1 X96.898 Y113.079 E21.2891
G1 X96.307 Y112.818 E21.31059
G1 X94.898 Y112.149 E21.36246
G1 X94.207 Y111.788 E21.38839
G1 X93.576 Y111.422 E21.41266
G1 X92.428 Y110.721 E21.4574
G1 X91.703 Y110.235 E21.48643
G1 X90.85 Y109.608 E21.52164
G1 X90.051 Y108.994 E21.55515
G1 X89.545 Y108.577 E21.57696
G1 X89.019 Y108.107 E21.60042
G1 X88.005 Y107.155 E21.64668
G1 X87.556 Y106.706 E21.6678
G1 X87.159 Y106.277 E21.68724
