;FLAVOR:Marlin
;TIME:10417
;Filament used: 4.30814m
;Layer height: 0.12
;MINX:79
;MINY:49
;MINZ:0.12
;MAXX:156
;MAXY:96
;MAXZ:27.96
;Generated with Cura_SteamEngine 5.4.0
M140 S50
M105
M190 S50
M104 S200
M105
M109 S200
M82 ;absolute extrusion mode
; Ender 3 Custom Start G-code
G92 E0 ; Reset Extruder
G28 ; Home all axes
G1 Z2.0 F3000 ; Move Z Axis up little to prevent scratching of Heat Bed
G1 X0.1 Y20 Z0.3 F5000.0 ; Move to start position
G1 X0.1 Y200.0 Z0.3 F1500.0 E15 ; Draw the first line
G1 X0.4 Y200.0 Z0.3 F5000.0 ; Move to side a little
G1 X0.4 Y20 Z0.3 F1500.0 E30 ; Draw the second line
G92 E0 ; Reset Extruder
G1 Z2.0 F3000 ; Move Z Axis up little to prevent scratching of Heat Bed
G1 X5 Y20 Z0.3 F5000.0 ; Move over to prevent blob squish
G92 E0
G92 E0
G1 F2700 E-5
;LAYER_COUNT:233
;LAYER:0
M107
G0 F6000 X81.955 Y72.514 Z0.12
;TYPE:SKIRT
G1 F2700 E0
G1 F1200 X83.23 Y71.163 E0.03707
G1 X84.944 Y69.273 E0.08799
G1 X86.561 Y67.382 E0.13764
G1 X88.149 Y65.417 E0.18806
G1 X89.679 Y63.411 E0.23841
G1 X91.135 Y61.385 E0.28819
G1 X92.541 Y59.305 E0.3383
G1 X93.917 Y57.14 E0.38949
G1 X95.553 Y54.39 E0.45335
G1 X96.108 Y53.547 E0.47349
G1 X96.691 Y52.811 E0.49222
G1 X97.387 Y52.078 E0.5124
G1 X98.118 Y51.436 E0.53181
G1 X98.904 Y50.859 E0.55127
G1 X99.737 Y50.355 E0.5707
G1 X100.611 Y49.927 E0.59012
G1 X101.52 Y49.578 E0.60955
G1 X102.456 Y49.309 E0.62899
G1 X103.342 Y49.136 E0.647
G1 X104.705 Y49.013 E0.67431
G1 X105.312 Y49 E0.68643
G1 X129.304 Y49 E1.16521
G1 X130.186 Y49.013 E1.18282
G1 X131.158 Y49.072 E1.20225
G1 X132.121 Y49.218 E1.22169
G1 X133.069 Y49.449 E1.24116
G1 X133.925 Y49.737 E1.25918
G1 X134.881 Y50.156 E1.28001
G1 X135.734 Y50.627 E1.29946
G1 X136.541 Y51.172 E1.31889
G1 X137.296 Y51.785 E1.3383
G1 X137.996 Y52.463 E1.35775
G1 X138.616 Y53.18 E1.37666
G1 X139.433 Y54.363 E1.40535
G1 X139.941 Y55.214 E1.42513
G1 X140.475 Y56.138 E1.44643
G1 X141.794 Y58.272 E1.49649
G1 X143.17 Y60.368 E1.54653
G1 X144.634 Y62.463 E1.59753
G1 X146.118 Y64.463 E1.64723
G1 X147.685 Y66.457 E1.69784
G1 X149.257 Y68.344 E1.74685
G1 X150.955 Y70.269 E1.79808
G1 X153.057 Y72.527 E1.85964
G1 X153.643 Y73.214 E1.87766
G1 X154.248 Y74.066 E1.89852
G1 X154.721 Y74.877 E1.91725
G1 X155.15 Y75.791 E1.9374
G1 X155.461 Y76.639 E1.95543
G1 X155.732 Y77.647 E1.97626
G1 X155.894 Y78.576 E1.99507
G1 X155.986 Y79.817 E2.01991
G1 X155.999 Y80.613 E2.0358
G1 X156 Y84.274 E2.10885
G1 X155.987 Y85.177 E2.12688
G1 X155.929 Y86.15 E2.14633
G1 X155.783 Y87.113 E2.16577
G1 X155.552 Y88.06 E2.18522
G1 X155.239 Y88.982 E2.20465
G1 X154.847 Y89.873 E2.22407
G1 X154.395 Y90.695 E2.24279
G1 X153.833 Y91.533 E2.26293
G1 X153.243 Y92.263 E2.28166
G1 X152.54 Y92.989 E2.30183
G1 X151.804 Y93.625 E2.32124
G1 X151.014 Y94.195 E2.34068
G1 X150.238 Y94.658 E2.35871
G1 X149.298 Y95.111 E2.37954
G1 X148.385 Y95.453 E2.39899
G1 X147.447 Y95.712 E2.41841
G1 X146.481 Y95.889 E2.43801
G1 X145.345 Y95.985 E2.46076
G1 X144.67 Y96 E2.47424
G1 X90.564 Y95.999 E3.55398
G1 X89.831 Y95.988 E3.56861
G1 X88.859 Y95.931 E3.58804
G1 X87.896 Y95.785 E3.60748
G1 X86.95 Y95.556 E3.6269
G1 X86.026 Y95.244 E3.64636
G1 X85.136 Y94.852 E3.66577
G1 X84.313 Y94.401 E3.6845
G1 X83.474 Y93.84 E3.70464
G1 X82.77 Y93.274 E3.72267
G1 X82.017 Y92.549 E3.74353
G1 X81.38 Y91.813 E3.76295
G1 X80.85 Y91.082 E3.78097
G1 X80.314 Y90.185 E3.80182
G1 X79.892 Y89.307 E3.82126
G1 X79.55 Y88.395 E3.8407
G1 X79.29 Y87.457 E3.86013
G1 X79.112 Y86.488 E3.87979
G1 X79.014 Y85.309 E3.9034
G1 X79 Y84.658 E3.91639
G1 X79.001 Y80.542 E3.99853
G1 X79.012 Y79.828 E4.01278
G1 X79.072 Y78.84 E4.03253
G1 X79.218 Y77.877 E4.05197
G1 X79.449 Y76.929 E4.07144
G1 X79.763 Y76.007 E4.09088
G1 X80.156 Y75.118 E4.11028
G1 X80.609 Y74.295 E4.12902
G1 X81.154 Y73.482 E4.14856
G1 X81.955 Y72.514 E4.17363
G0 F6000 X82.248 Y72.786
G1 F1200 X82.837 Y72.153 E4.19088
G1 X83.526 Y71.432 E4.21079
G1 X85.24 Y69.542 E4.2617
G1 X86.865 Y67.642 E4.3116
G1 X88.467 Y65.66 E4.36245
G1 X89.997 Y63.654 E4.4128
G1 X91.46 Y61.618 E4.46283
G1 X92.879 Y59.52 E4.51338
G1 X94.255 Y57.355 E4.56457
G1 X95.897 Y54.594 E4.62868
G1 X96.422 Y53.795 E4.64776
G1 X96.982 Y53.086 E4.66579
G1 X97.652 Y52.378 E4.68524
G1 X98.355 Y51.758 E4.70394
G1 X99.112 Y51.201 E4.7227
G1 X99.914 Y50.714 E4.74142
G1 X100.755 Y50.3 E4.76013
G1 X101.631 Y49.962 E4.77887
G1 X102.533 Y49.702 E4.7976
G1 X103.419 Y49.529 E4.81562
G1 X104.714 Y49.413 E4.84156
G1 X105.321 Y49.4 E4.85368
G1 X129.298 Y49.4 E5.33217
G1 X130.162 Y49.412 E5.34941
G1 X131.099 Y49.468 E5.36814
G1 X132.027 Y49.607 E5.38687
G1 X132.941 Y49.828 E5.40563
G1 X133.797 Y50.116 E5.42366
G1 X134.688 Y50.506 E5.44307
G1 X135.511 Y50.959 E5.46181
G1 X136.289 Y51.483 E5.48053
G1 X137.018 Y52.073 E5.49925
G1 X137.693 Y52.725 E5.51798
G1 X138.313 Y53.442 E5.53689
G1 X139.09 Y54.568 E5.56419
G1 X139.595 Y55.414 E5.58386
G1 X140.135 Y56.348 E5.60539
G1 X141.46 Y58.492 E5.65568
G1 X142.842 Y60.597 E5.70593
G1 X144.306 Y62.692 E5.75694
G1 X145.803 Y64.71 E5.80708
G1 X147.37 Y66.704 E5.85769
G1 X148.957 Y68.609 E5.90717
G1 X150.662 Y70.542 E5.95861
G1 X152.753 Y72.787 E6.01983
G1 X153.339 Y73.474 E6.03785
G1 X153.902 Y74.268 E6.05728
G1 X154.375 Y75.079 E6.07601
G1 X154.774 Y75.929 E6.09475
G1 X155.085 Y76.777 E6.11278
G1 X155.338 Y77.717 E6.1322
G1 X155.495 Y78.606 E6.15022
G1 X155.586 Y79.824 E6.17459
G1 X155.599 Y80.613 E6.19034
G1 X155.6 Y84.269 E6.2633
G1 X155.588 Y85.154 E6.28096
G1 X155.533 Y86.091 E6.29969
G1 X155.394 Y87.019 E6.31842
G1 X155.173 Y87.932 E6.33716
G1 X154.873 Y88.821 E6.35589
G1 X154.496 Y89.68 E6.37461
G1 X154.044 Y90.502 E6.39333
G1 X153.521 Y91.282 E6.41207
G1 X152.955 Y91.985 E6.43008
G1 X152.278 Y92.687 E6.44954
G1 X151.57 Y93.301 E6.46824
G1 X150.809 Y93.851 E6.48698
G1 X150.033 Y94.314 E6.50502
G1 X149.157 Y94.737 E6.52443
G1 X148.278 Y95.068 E6.54317
G1 X147.374 Y95.319 E6.5619
G1 X146.447 Y95.49 E6.58071
G1 X145.311 Y95.586 E6.60346
G1 X144.67 Y95.6 E6.61625
G1 X90.57 Y95.599 E7.69588
G1 X89.854 Y95.589 E7.71017
G1 X88.918 Y95.535 E7.72888
G1 X87.989 Y95.396 E7.74762
G1 X87.077 Y95.177 E7.76634
G1 X86.187 Y94.878 E7.78508
G1 X85.328 Y94.501 E7.8038
G1 X84.505 Y94.05 E7.82252
G1 X83.725 Y93.528 E7.84125
G1 X83.021 Y92.962 E7.85928
G1 X82.319 Y92.287 E7.87872
G1 X81.704 Y91.578 E7.89745
G1 X81.174 Y90.847 E7.91546
G1 X80.674 Y90.011 E7.9349
G1 X80.266 Y89.166 E7.95363
G1 X79.935 Y88.288 E7.97235
G1 X79.683 Y87.384 E7.99108
G1 X79.511 Y86.455 E8.00994
G1 X79.413 Y85.276 E8.03355
G1 X79.4 Y84.658 E8.04588
G1 X79.401 Y80.548 E8.1279
G1 X79.411 Y79.852 E8.14179
G1 X79.468 Y78.899 E8.16084
G1 X79.607 Y77.971 E8.17957
G1 X79.828 Y77.057 E8.19834
G1 X80.129 Y76.168 E8.21707
G1 X80.507 Y75.31 E8.23578
G1 X80.941 Y74.518 E8.2538
G1 X81.486 Y73.705 E8.27333
G1 X82.248 Y72.786 E8.29716
G0 F6000 X82.541 Y73.058
G1 F1200 X83.126 Y72.429 E8.3143
G1 X83.822 Y71.701 E8.3344
G1 X85.536 Y69.811 E8.38531
G1 X87.169 Y67.902 E8.43545
G1 X88.785 Y65.903 E8.48674
G1 X90.315 Y63.897 E8.53709
G1 X91.785 Y61.851 E8.58737
G1 X93.217 Y59.735 E8.63835
G1 X94.593 Y57.57 E8.68955
G1 X96.241 Y54.798 E8.7539
G1 X96.736 Y54.043 E8.77192
G1 X97.296 Y53.334 E8.78995
G1 X97.917 Y52.678 E8.80798
G1 X98.593 Y52.08 E8.82599
G1 X99.32 Y51.543 E8.84402
G1 X100.091 Y51.073 E8.86204
G1 X100.9 Y50.673 E8.88005
G1 X101.742 Y50.346 E8.89808
G1 X102.61 Y50.095 E8.91611
G1 X103.496 Y49.922 E8.93413
G1 X104.723 Y49.813 E8.95871
G1 X105.33 Y49.8 E8.97082
G1 X129.293 Y49.8 E9.44903
G1 X130.139 Y49.811 E9.46592
G1 X131.041 Y49.864 E9.48395
G1 X131.934 Y49.996 E9.50196
G1 X132.813 Y50.207 E9.52
G1 X133.669 Y50.495 E9.53803
G1 X134.496 Y50.857 E9.55604
G1 X135.288 Y51.291 E9.57406
G1 X136.038 Y51.794 E9.59209
G1 X136.741 Y52.361 E9.61011
G1 X137.391 Y52.987 E9.62812
G1 X137.984 Y53.669 E9.64615
G1 X138.747 Y54.773 E9.67293
G1 X139.249 Y55.614 E9.69248
G1 X139.795 Y56.558 E9.71424
G1 X141.126 Y58.712 E9.76477
G1 X142.514 Y60.826 E9.81524
G1 X143.978 Y62.921 E9.86624
G1 X145.488 Y64.957 E9.91683
G1 X147.055 Y66.951 E9.96744
G1 X148.657 Y68.874 E10.01739
G1 X150.369 Y70.815 E10.06904
G1 X152.449 Y73.047 E10.12992
G1 X153.035 Y73.734 E10.14794
G1 X153.557 Y74.47 E10.16595
G1 X154.013 Y75.25 E10.18398
G1 X154.398 Y76.067 E10.202
G1 X154.709 Y76.915 E10.22003
G1 X154.944 Y77.787 E10.23805
G1 X155.101 Y78.676 E10.25606
G1 X155.186 Y79.831 E10.27918
G1 X155.199 Y80.613 E10.29478
G1 X155.2 Y84.264 E10.36764
G1 X155.189 Y85.131 E10.38495
G1 X155.137 Y86.033 E10.40298
G1 X155.005 Y86.926 E10.42099
G1 X154.794 Y87.805 E10.43903
G1 X154.507 Y88.661 E10.45705
G1 X154.145 Y89.488 E10.47506
G1 X153.711 Y90.28 E10.49309
G1 X153.209 Y91.031 E10.51111
G1 X152.643 Y91.734 E10.52912
G1 X152.016 Y92.385 E10.54716
G1 X151.335 Y92.977 E10.56517
G1 X150.604 Y93.507 E10.58319
G1 X149.828 Y93.97 E10.60122
G1 X149.015 Y94.363 E10.61924
G1 X148.17 Y94.683 E10.63727
G1 X147.301 Y94.926 E10.65528
G1 X146.413 Y95.091 E10.6733
G1 X145.277 Y95.187 E10.69605
G1 X144.67 Y95.2 E10.70817
G1 X90.575 Y95.199 E11.7877
G1 X89.877 Y95.19 E11.80163
G1 X88.976 Y95.139 E11.81963
G1 X88.082 Y95.007 E11.83767
G1 X87.204 Y94.798 E11.85568
G1 X86.347 Y94.511 E11.87372
G1 X85.52 Y94.15 E11.89172
G1 X84.727 Y93.717 E11.90975
G1 X83.976 Y93.216 E11.92777
G1 X83.272 Y92.65 E11.9458
G1 X82.621 Y92.024 E11.96382
G1 X82.028 Y91.343 E11.98184
G1 X81.498 Y90.612 E11.99986
G1 X81.034 Y89.837 E12.01788
G1 X80.64 Y89.024 E12.03591
G1 X80.32 Y88.18 E12.05393
G1 X80.076 Y87.31 E12.07196
G1 X79.91 Y86.422 E12.08999
G1 X79.813 Y85.267 E12.11312
G1 X79.8 Y84.658 E12.12527
G1 X79.801 Y80.554 E12.20717
G1 X79.811 Y79.858 E12.22106
G1 X79.864 Y78.957 E12.23907
G1 X79.996 Y78.064 E12.25709
G1 X80.207 Y77.185 E12.27513
G1 X80.495 Y76.329 E12.29315
G1 X80.858 Y75.502 E12.31118
G1 X81.292 Y74.71 E12.3292
G1 X81.794 Y73.96 E12.34721
G1 X82.541 Y73.058 E12.37058
G1 F2700 E7.37058
;MESH:LM8UU holder.STL
G0 F6000 X113.411 Y77.14
G0 X115.323 Y77.921
G0 X116.089 Y78.155
G0 X118.251 Y78.456
;TYPE:WALL-INNER
G1 F2700 E12.37058
G1 F1200 X117.231 Y78.496 E12.39095
G1 X116.235 Y78.371 E12.41098
G1 X115.267 Y78.074 E12.43119
G1 X114.35 Y77.612 E12.45168
G1 X113.534 Y77.007 E12.47195
G1 X112.825 Y76.268 E12.49239
G1 X112.277 Y75.455 E12.51196
G1 X111.84 Y74.502 E12.53288
G1 X111.584 Y73.499 E12.55354
G1 X111.494 Y72.5 E12.57355
G1 X111.586 Y71.472 E12.59415
G1 X111.849 Y70.483 E12.61457
G1 X112.261 Y69.567 E12.63462
G1 X112.826 Y68.731 E12.65475
G1 X113.535 Y67.993 E12.67517
G1 X114.35 Y67.389 E12.69542
G1 X115.267 Y66.926 E12.71592
G1 X116.229 Y66.631 E12.736
G1 X117.241 Y66.502 E12.75636
G1 X118.26 Y66.546 E12.77671
G1 X119.263 Y66.762 E12.79719
G1 X120.207 Y67.139 E12.81747
G1 X121.067 Y67.672 E12.83766
G1 X121.839 Y68.349 E12.85815
G1 X122.475 Y69.138 E12.87838
G1 X122.971 Y70.027 E12.89869
G1 X123.31 Y70.986 E12.91899
G1 X123.481 Y72.011 E12.93973
G1 X123.483 Y73.006 E12.95959
G1 X123.312 Y73.995 E12.97961
G1 X122.959 Y74.99 E13.00068
G1 X122.476 Y75.861 E13.02056
G1 X121.835 Y76.656 E13.04094
G1 X121.066 Y77.329 E13.06133
G1 X120.206 Y77.861 E13.08151
G1 X119.257 Y78.24 E13.10191
G1 X118.251 Y78.456 E13.12244
G0 F6000 X117.296 Y78.396
G0 X117.284 Y78.094
G1 F1200 X116.324 Y77.979 E13.14173
G1 X115.412 Y77.7 E13.16077
G1 X114.563 Y77.272 E13.17974
G1 X113.796 Y76.702 E13.19881
G1 X113.139 Y76.016 E13.21777
G1 X112.621 Y75.25 E13.23622
G1 X112.217 Y74.366 E13.25562
G1 X111.979 Y73.439 E13.27471
G1 X111.899 Y72.502 E13.29348
G1 X111.978 Y71.568 E13.31219
G1 X112.208 Y70.67 E13.33069
G1 X112.607 Y69.77 E13.35033
G1 X113.142 Y68.98 E13.36937
G1 X113.796 Y68.298 E13.38823
G1 X114.564 Y67.728 E13.40732
G1 X115.413 Y67.3 E13.42629
G1 X116.343 Y67.019 E13.44568
G1 X117.257 Y66.904 E13.46406
G1 X118.212 Y66.944 E13.48314
G1 X119.144 Y67.145 E13.50216
G1 X120.025 Y67.496 E13.52109
G1 X120.828 Y67.994 E13.53994
G1 X121.527 Y68.607 E13.5585
G1 X122.143 Y69.362 E13.57794
G1 X122.605 Y70.191 E13.59688
G1 X122.929 Y71.126 E13.61663
G1 X123.082 Y72.036 E13.63504
G1 X123.083 Y72.975 E13.65378
G1 X122.915 Y73.932 E13.67317
G1 X122.615 Y74.779 E13.6911
G1 X122.145 Y75.635 E13.71059
G1 X121.546 Y76.378 E13.72964
G1 X120.828 Y77.006 E13.74867
G1 X120.025 Y77.504 E13.76753
G1 X119.145 Y77.855 E13.78644
G1 X118.238 Y78.05 E13.80495
G1 X117.284 Y78.094 E13.82401
G1 F2700 E8.82401
G0 F6000 X117.296 Y78.396
G0 X120.289 Y78.023
G0 X120.289 Y83.8
G0 X144 Y84
G1 F2700 E13.82401
G1 F1200 X144 Y80.619 E13.89148
G1 X132.316 Y74.778 E14.15216
G1 X131.505 Y74.293 E14.17102
G1 X130.779 Y73.679 E14.18999
G1 X130.181 Y72.981 E14.20834
G1 X129.659 Y72.146 E14.22799
G1 X129.289 Y71.25 E14.24733
G1 X129.07 Y70.35 E14.26582
G1 X129 Y69.41 E14.28463
G1 X129 Y61 E14.45246
G1 X106 Y61 E14.91145
G1 X105.997 Y69.491 E15.0809
G1 X105.922 Y70.373 E15.09856
G1 X105.707 Y71.271 E15.11699
G1 X105.34 Y72.152 E15.13603
G1 X104.823 Y72.979 E15.1555
G1 X104.191 Y73.703 E15.17467
G1 X103.496 Y74.291 E15.19284
G1 X102.679 Y74.78 E15.21184
G1 X91 Y80.619 E15.47242
G1 X91 Y84 E15.53989
G1 X144 Y84 E16.59756
G0 F6000 X144.4 Y84.4
G1 F1200 X144.4 Y80.372 E16.67794
G1 X132.453 Y74.397 E16.94451
G1 X131.739 Y73.966 E16.96116
G1 X131.087 Y73.416 E16.97818
G1 X130.497 Y72.736 E16.99614
G1 X130.015 Y71.964 E17.01431
G1 X129.673 Y71.139 E17.03213
G1 X129.47 Y70.294 E17.04947
G1 X129.401 Y69.458 E17.06621
G1 X129.4 Y60.6 E17.24298
G1 X105.6 Y60.6 E17.71794
G1 X105.599 Y69.459 E17.89473
G1 X105.533 Y70.268 E17.91093
G1 X105.324 Y71.144 E17.9289
G1 X105.002 Y71.924 E17.94574
G1 X104.516 Y72.726 E17.96445
G1 X103.92 Y73.409 E17.98254
G1 X103.269 Y73.96 E17.99956
G1 X102.5 Y74.422 E18.01747
G1 X90.6 Y80.372 E18.28297
G1 X90.6 Y84.4 E18.36336
G1 X144.4 Y84.4 E19.43699
G0 F6000 X144.8 Y84.8
;TYPE:WALL-OUTER
G1 F1200 X144.8 Y80.125 E19.53029
G1 X132.66 Y74.055 E19.80115
G1 X131.984 Y73.647 E19.81691
G1 X131.353 Y73.118 E19.83334
G1 X130.807 Y72.482 E19.85007
G1 X130.371 Y71.782 E19.86652
G1 X130.055 Y71.018 E19.88302
G1 X129.864 Y70.226 E19.89928
G1 X129.8 Y69.426 E19.9153
G1 X129.8 Y60.2 E20.09941
G1 X105.2 Y60.2 E20.59033
G1 X105.2 Y69.427 E20.77447
G1 X105.136 Y70.219 E20.79032
G1 X104.942 Y71.024 E20.80685
G1 X104.624 Y71.787 E20.82334
G1 X104.191 Y72.489 E20.8398
G1 X103.65 Y73.114 E20.8563
G1 X103.018 Y73.645 E20.87277
G1 X102.335 Y74.057 E20.88869
G1 X90.2 Y80.125 E21.15945
G1 X90.2 Y84.8 E21.25274
G1 X144.8 Y84.8 E22.34234
G1 F2700 E17.34234
G0 F6000 X144.53 Y84.53
G0 X117.171 Y83.8
G0 X117.224 Y78.677
G0 X117.171 Y78.387
G0 X117.259 Y77.693
G1 F2700 E22.34234
G1 F1200 X116.388 Y77.581 E22.35987
G1 X115.547 Y77.32 E22.37744
G1 X114.759 Y76.919 E22.39509
G1 X114.053 Y76.392 E22.41267
G1 X113.442 Y75.751 E22.43034
G1 X112.964 Y75.044 E22.44737
G1 X112.602 Y74.245 E22.46487
G1 X112.373 Y73.366 E22.483
G1 X112.299 Y72.482 E22.5007
G1 X112.376 Y71.612 E22.51813
G1 X112.592 Y70.782 E22.53525
G1 X112.953 Y69.976 E22.55287
G1 X113.463 Y69.223 E22.57102
G1 X114.078 Y68.586 E22.58869
G1 X114.788 Y68.063 E22.60629
G1 X115.579 Y67.667 E22.62394
G1 X116.412 Y67.413 E22.64132
G1 X117.258 Y67.307 E22.65834
G1 X118.178 Y67.346 E22.67671
G1 X119.041 Y67.535 E22.69434
G1 X119.857 Y67.863 E22.71189
G1 X120.577 Y68.309 E22.7288
G1 X121.25 Y68.895 E22.7466
G1 X121.818 Y69.602 E22.7647
G1 X122.245 Y70.374 E22.78231
G1 X122.537 Y71.206 E22.7999
G1 X122.68 Y72.041 E22.81681
G1 X122.683 Y72.925 E22.83445
G1 X122.534 Y73.807 E22.8523
G1 X122.243 Y74.633 E22.86978
G1 X121.799 Y75.426 E22.88792
G1 X121.243 Y76.111 E22.90552
G1 X120.577 Y76.691 E22.92315
G1 X119.857 Y77.137 E22.94005
G1 X119.01 Y77.475 E22.95825
G1 X118.169 Y77.656 E22.97541
G1 X117.259 Y77.693 E22.99359
G1 F2700 E17.99359
G0 F6000 X117.171 Y78.387
G0 X120.289 Y78.023
G0 X120.289 Y83.8
G0 X143.828 Y83.828
G0 X143.64 Y83.64
;TYPE:SKIN
G1 F2700 E22.99359
G1 F1200 X91.36 Y83.64 E24.03689
G1 X91.36 Y80.842 E24.09273
G1 X102.844 Y75.1 E24.34896
G1 X103.69 Y74.595 E24.36862
G1 X104.472 Y73.939 E24.38899
G1 X105.101 Y73.209 E24.40822
G1 X105.653 Y72.322 E24.42907
G1 X106.045 Y71.398 E24.4491
G1 X106.278 Y70.424 E24.46908
G1 X106.357 Y69.52 E24.48719
G1 X106.36 Y61.361 E24.65001
G1 X128.64 Y61.36 E25.09463
G1 X128.643 Y69.521 E25.2575
